X:577
T:Braigh Lochiall
T:The Braes of Locheil
B:The Gesto Collection
Z:Nigel Gatherer
L:1/8
M:4/4
K:C
C | DE D2 D4 | d2 d4 cA | G2  A2 c4 | ED C2 G4 | 
    A2 d4 cA | G2 A2 c4 | F<E D2 C4 | D6      |]
<end>
<start>
